brandFactory_export/1.Light/Maletin _1Light.svg

<?xml version="1.0" encoding="UTF-8"?>
<svg width="24px" height="24px" viewBox="0 0 24 24" version="1.1" xmlns="http://www.w3.org/2000/svg" xmlns:xlink="http://www.w3.org/1999/xlink">
    <title>1.Light/Maletin _1Light</title>
    <g id="Symbols" stroke="none" stroke-width="1" fill="none" fill-rule="evenodd">
        <g id="1.Light/Maletin-_1Light" fill="#5CB615" fill-rule="nonzero">
            <path d="M22.618523,22.0739496 C22.6218487,22.3663866 22.3865546,22.6084034 22.0907563,22.6117647 L1.53613445,22.6117647 C1.24369748,22.6117647 1.00504202,22.3731092 1.00504202,22.0806723 L1.00504202,13.405042 C3.05546218,14.7731092 5.95966387,15.4521008 10.3529412,15.5731092 L10.3428571,15.5831933 L10.3428571,17.5159664 C10.3428571,17.8184874 10.4336134,18.0638655 10.6151261,18.2453782 C10.7966387,18.4168067 11.0352941,18.507563 11.3277311,18.507563 L12.292437,18.507563 C12.594958,18.507563 12.8369748,18.4168067 13.005042,18.2453782 C13.1865546,18.0638655 13.2773109,17.8184874 13.2773109,17.5159664 L13.2773109,15.5831933 C17.6403361,15.4722689 20.5546218,14.8336134 22.6151261,13.5159664 C22.618523,13.5159664 22.618523,22.0739496 22.618523,22.0739496 Z M11.589916,15.5932773 L12.2756303,15.5831933 L12.2756303,15.5932773 L12.2655462,17.4957983 L11.3512605,17.5159664 L11.3310924,15.6033613 L11.589916,15.5932773 L11.589916,15.5932773 Z M1.00500645,7.70756303 C1.00168067,7.41512605 1.23697479,7.17310924 1.52941176,7.1697479 L22.0840336,7.1697479 C22.3764706,7.1697479 22.6151261,7.40504202 22.6184874,7.70084034 L22.6184874,12.302521 C20.5882353,13.8420168 17.3915966,14.5478992 12.292437,14.5915966 L11.902521,14.5915966 C6.43361345,14.5915966 3.07563025,13.8319328 1.00500645,12.1512605 L1.00500645,7.70756303 Z M7.02857143,5.46890756 C7.02857143,3.01848739 9.12941176,1.01176471 11.7042017,1.01176471 L11.9226891,1.01176471 C14.507563,1.01176471 16.5983193,3.01848739 16.5983193,5.46890756 L16.5983193,6.15798319 L7.02857143,6.15798319 L7.02857143,5.46890756 Z M22.087395,6.15798319 L17.6033613,6.15798319 L17.6033613,5.46890756 C17.6033613,2.4605042 15.0588235,0 11.9193277,0 L11.7008403,0 C8.57142857,0 6.02016807,2.4605042 6.02016807,5.46890756 L6.02016807,6.15798319 L1.53613445,6.15798319 C0.692436975,6.15798319 0,6.84705882 0,7.70756303 L0,22.0739496 C0,22.9378151 0.692436975,23.6235294 1.53613445,23.6235294 L22.0840336,23.6235294 C22.9378151,23.6235294 23.6235294,22.9378151 23.6235294,22.0739496 L23.6235294,7.70756303 C23.6235294,6.84705882 22.9411765,6.15798319 22.087395,6.15798319 Z" id="Maletin-_1Light"></path>
        </g>
    </g>
</svg>

<svg width="24" height="24" viewBox="0 0 24 24" xmlns="http://www.w3.org/2000/svg"><path d="M22.619 22.074a.533.533 0 01-.528.538H1.536a.532.532 0 01-.531-.531v-8.676c2.05 1.368 4.955 2.047 9.348 2.168l-.01.01v1.933c0 .302.09.548.272.73.182.17.42.262.713.262h.964c.303 0 .545-.091.713-.263.182-.181.272-.427.272-.729v-1.933c4.363-.11 7.278-.75 9.338-2.067.004 0 .004 8.558.004 8.558zm-11.03-6.48l.687-.01v.01l-.01 1.902-.915.02-.02-1.913.259-.01zM1.006 7.707a.532.532 0 01.524-.538h20.555c.292 0 .531.235.534.53v4.603c-2.03 1.539-5.226 2.245-10.326 2.289h-.39c-5.468 0-8.826-.76-10.897-2.44V7.707zm6.024-2.24c0-2.45 2.1-4.456 4.675-4.456h.219c2.585 0 4.675 2.006 4.675 4.457v.689h-9.57v-.69zm15.058.69h-4.484v-.69C17.603 2.462 15.06 0 11.92 0h-.218C8.57 0 6.02 2.46 6.02 5.469v.689H1.535C.692 6.158 0 6.848 0 7.708v14.366c0 .864.692 1.55 1.536 1.55h20.548c.854 0 1.54-.686 1.54-1.55V7.708c0-.86-.683-1.55-1.537-1.55z" fill="#5CB615" fill-rule="nonzero"/></svg>
